X: 20418
T: John Dwyer's
R: reel
M: 4/4
K: Gmajor
|:Bc|dB (3BcB GEDE|G2 BG dGBG|AGAB AGED|(3EFG AB c2 Bc|
dB (3BcB GEDE|G2 BG dGBG|B2 BA BedB|AGAB G2:|
|:ga|bg (3gag bgeg|af (3fgf afdf|bg (3gag bgfg|eaag a2 ga|
bg (3gag agef|gfge dBGA|B2 BA BedB|AGAB G2:|

